X:1
T: The Mountain Boy
C:
R:Jig
Q:180
K:D
M:6/8
L:1/16
d2|c2A2A2 A4G2|F2A2A2 A4d2|c2A2B2 c2A2G2|A2B2c2 d2f2d2|c2A2A2 A4G2|F2A2A2 A4g2|f2e2d2 c2A2G2|A2B2c2 d4d2|
c2A2A2 A4G2|F2A2A2 A4d2|c2A2B2 c2A2G2|A2B2c2 d2f2d2|c2A2A2 A4G2|F2A2A2 A4g2|f2e2d2 c2A2G2|A2B2c2 d4d2|
f2g2f2 e2f2e2|d2e2d2 c2d2e2|f2a2g2 e2d2c2|e2d2d2 d4g2|f2g2f2 e2f2e2|d2e2d2 c2d2e2|f2e2d2 c2A2G2|A2B2c2 d4g2|
f2g2f2 e2f2e2|d2e2d2 c2d2e2|f2a2g2 e2d2c2|e2d2d2 d4g2|f2g2f2 e2f2e2|d2e2d2 c2d2e2|f2e2d2 c2A2G2|A2B2c2 d4||
